outputs/icons/audio_video/skip_next_round.svg

<svg xmlns="http://www.w3.org/2000/svg" width="1200" height="1200" fill="none"><g clip-path="url(#a)"><path fill="#000" d="M379 844.5 667.5 641c28-20 28-62 0-81.5L379 355.5c-33.5-23-79 .5-79 41v407c0 40.5 45.5 64 79 41M800 350v500c0 27.5 22.5 50 50 50s50-22.5 50-50V350c0-27.5-22.5-50-50-50s-50 22.5-50 50"/></g><defs><clipPath id="a"><path fill="#fff" d="M0 0h1200v1200H0z"/></clipPath></defs></svg>

<svg width="1200" height="1200" viewBox="0 0 1200 1200" fill="none" xmlns="http://www.w3.org/2000/svg"><g clip-path="url(#clip0_231_5127)"><path d="M379 844.5L667.5 641C695.5 621 695.5 579 667.5 559.5L379 355.5C345.5 332.5 300 356 300 396.5V803.5C300 844 345.5 867.5 379 844.5ZM800 350V850C800 877.5 822.5 900 850 900C877.5 900 900 877.5 900 850V350C900 322.5 877.5 300 850 300C822.5 300 800 322.5 800 350Z" fill="black"/></g><defs><clipPath id="clip0_231_5127"><path width="24" fill="white" d="M0 0H1200V1200H0V0z"/></clipPath></defs></svg>
